<?xml version="1.0" encoding="UTF-8"?>
<map version="1.10" tiledversion="1.10.2" orientation="staggered" renderorder="right-down" width="10" height="10" tilewidth="8" tileheight="8" infinite="0" staggeraxis="y" staggerindex="odd" nextlayerid="2" nextobjectid="1">
 <tileset firstgid="1" source="tileset-0.tsx"/>
 <layer id="1" name="Tile Layer 1" width="10" height="10">
  <data encoding="csv">
0,0,0,0,0,0,0,0,0,0,
0,0,0,0,0,0,0,0,0,0,
0,0,0,0,0,1,2,3,4,0,
0,80,0,0,0,0,0,0,0,0,
79,0,112,0,0,33,34,35,36,0,
0,111,0,0,0,0,0,0,0,0,
0,0,0,0,0,0,0,0,0,0,
0,0,0,0,3,0,0,0,0,0,
0,0,0,0,0,0,0,0,0,0,
0,0,0,0,0,0,0,0,0,0
</data>
 </layer>
</map>
